11/img/svg/burger.svg

<svg xmlns="http://www.w3.org/2000/svg" width="25" height="23">
  <path fill-rule="evenodd" fill="#FFF" d="M22.581 13.964H2.419C1.089 13.964 0 12.855 0 11.499c0-1.355 1.089-2.464 2.419-2.464h20.162c1.33 0 2.419 1.109 2.419 2.464 0 1.356-1.089 2.465-2.419 2.465zm0-9.036H2.419C1.089 4.928 0 3.819 0 2.464S1.089 0 2.419 0h20.162C23.911 0 25 1.109 25 2.464s-1.089 2.464-2.419 2.464zM2.419 18.071h20.162c1.33 0 2.419 1.109 2.419 2.464 0 1.356-1.089 2.464-2.419 2.464H2.419C1.089 22.999 0 21.891 0 20.535c0-1.355 1.089-2.464 2.419-2.464z"/>
</svg>

<svg 
 xmlns="http://www.w3.org/2000/svg"
 xmlns:xlink="http://www.w3.org/1999/xlink"
 width="25px" height="23px">
<path fill-rule="evenodd"  fill="rgb(255, 255, 255)"
 d="M22.581,13.964 L2.419,13.964 C1.089,13.964 -0.000,12.855 -0.000,11.499 C-0.000,10.144 1.089,9.035 2.419,9.035 L22.581,9.035 C23.911,9.035 25.000,10.144 25.000,11.499 C25.000,12.855 23.911,13.964 22.581,13.964 ZM22.581,4.928 L2.419,4.928 C1.089,4.928 -0.000,3.819 -0.000,2.464 C-0.000,1.109 1.089,-0.000 2.419,-0.000 L22.581,-0.000 C23.911,-0.000 25.000,1.109 25.000,2.464 C25.000,3.819 23.911,4.928 22.581,4.928 ZM2.419,18.071 L22.581,18.071 C23.911,18.071 25.000,19.180 25.000,20.535 C25.000,21.891 23.911,22.999 22.581,22.999 L2.419,22.999 C1.089,22.999 -0.000,21.891 -0.000,20.535 C-0.000,19.180 1.089,18.071 2.419,18.071 Z"/>
</svg>
